public/assets/ieee-only-logo.svg

<svg width="238" height="227" viewBox="0 0 238 227" fill="none" xmlns="http://www.w3.org/2000/svg">
<path d="M115.298 0.987069C114.277 1.45177 108.799 7.86472 103.044 15.1141C76.7712 48.2012 45.1144 78.4071 12.8077 100.806C7.05195 104.802 1.66751 109.078 0.924831 110.193C-0.839038 112.888 -0.00352102 116.42 2.78154 118.372C35.8309 141.886 47.5281 151.645 69.8086 174.044C87.3544 191.702 103.044 209.919 110.099 220.793C112.698 224.696 113.905 225.812 116.505 226.276C118.269 226.648 120.404 226.462 121.239 225.998C122.075 225.533 125.788 221.165 129.502 216.332C154.289 184.546 184.46 155.084 216.488 131.384C222.151 127.201 228.65 122.647 231.156 121.253C233.57 119.766 235.984 117.814 236.541 116.792C237.84 114.282 236.726 109.821 234.313 108.148C205.905 88.4447 192.815 77.8494 172.484 57.96C155.124 41.0447 142.034 26.36 130.894 11.4894C122.26 0.0576572 120.032 -1.4294 115.298 0.987069ZM127.459 31.4718C142.127 38.9071 176.848 71.1577 195.693 94.8577C205.626 107.312 206.741 109.264 206.741 113.911C206.741 116.978 205.812 119.115 202.006 124.785C185.76 149.135 133.122 196.814 120.682 198.487C114.184 199.324 103.508 192.446 80.9488 172.742C55.2334 150.251 32.3031 124.413 30.3536 115.676C29.0539 109.635 34.3455 101.549 53.3767 80.8235C68.416 64.4659 102.858 34.8177 112.42 30.1706C116.783 27.94 121.332 28.4047 127.459 31.4718Z" fill="white"/>
<path d="M112.513 36.1188C103.322 40.6729 72.0366 67.6258 56.8117 84.1694C40.6583 101.642 35.1811 109.914 36.2951 115.212C36.8521 118.093 41.3082 124.506 49.6634 134.543C64.517 152.481 98.2162 182.501 111.027 189.379C119.661 193.933 122.632 193.375 134.793 184.453C157.816 167.538 191.237 133.986 198.385 120.509C200.706 116.141 201.263 114.282 200.799 111.866C199.221 103.873 170.442 71.4364 148.162 52.5694C126.717 34.5388 120.961 31.8435 112.513 36.1188ZM125.51 69.3917C129.13 78.9647 132.101 87.2364 132.287 87.887C132.565 88.7235 131.173 89.0953 127.831 89.0953H123.003L123.653 106.754L124.303 124.413H118.083H111.956L112.606 106.754L113.255 89.0953H108.799C105.736 89.0953 104.529 88.7235 104.9 87.887C106.107 84.5411 113.998 62.7 115.855 57.6811C116.969 54.5211 118.083 51.9188 118.454 51.9188C118.733 51.9188 121.982 59.8188 125.51 69.3917ZM98.0305 98.947C101.187 100.806 103.508 102.665 103.229 103.036C102.951 103.408 101.28 104.059 99.3302 104.431C90.1395 106.103 82.9912 112.145 84.9407 116.513C87.5401 122.182 102.208 125.9 120.868 125.714C135.536 125.528 145.191 123.576 152.339 119.394C156.053 117.256 156.61 116.513 156.61 113.818C156.61 108.706 149.833 104.523 143.705 105.918C141.942 106.289 140.363 106.568 140.271 106.475C139.528 105.732 136.464 96.5305 136.928 96.5305C139.249 96.5305 158.466 101.642 158.466 102.2C158.466 102.665 157.816 103.036 156.888 103.036C156.053 103.036 156.981 104.152 159.209 105.825C165.615 110.379 166.636 114.84 162.644 119.673C156.517 126.922 139.621 131.198 117.155 131.291C98.7732 131.291 86.7974 128.967 74.7289 122.926C61.7319 116.42 64.7027 105.639 81.413 98.5753C85.2192 96.9953 89.304 95.6011 90.418 95.6011C91.532 95.6011 94.9669 97.0882 98.0305 98.947ZM124.581 133.893C124.767 134.543 125.324 142.629 125.788 151.831C126.438 163.913 126.345 168.746 125.603 169.211C124.396 170.047 113.72 170.14 111.677 169.396C110.378 168.839 110.192 166.887 110.749 151.923C111.027 142.722 111.399 134.543 111.677 133.893C111.863 133.149 113.998 132.778 118.083 132.778C122.168 132.778 124.303 133.149 124.581 133.893Z" fill="white"/>
</svg>

<svg width="238" height="227" fill="none" xmlns="http://www.w3.org/2000/svg"><path d="M115.298.987c-1.021.465-6.499 6.878-12.254 14.127-26.273 33.087-57.93 63.293-90.236 85.692-5.756 3.996-11.14 8.272-11.883 9.387-1.764 2.695-.929 6.227 1.857 8.179 33.049 23.514 44.746 33.273 67.027 55.672 17.545 17.658 33.235 35.875 40.29 46.749 2.599 3.903 3.806 5.019 6.406 5.483 1.764.372 3.899.186 4.734-.278.836-.465 4.549-4.833 8.263-9.666 24.787-31.786 54.958-61.248 86.986-84.948 5.663-4.183 12.162-8.737 14.668-10.131 2.414-1.487 4.828-3.439 5.385-4.461 1.299-2.51.185-6.971-2.228-8.644-28.408-19.703-41.498-30.299-61.829-50.188-17.36-16.915-30.45-31.6-41.59-46.47C122.26.057 120.032-1.43 115.298.986Zm12.161 30.485c14.668 7.435 49.389 39.686 68.234 63.386 9.933 12.454 11.048 14.406 11.048 19.053 0 3.067-.929 5.204-4.735 10.874-16.246 24.35-68.884 72.029-81.324 73.702-6.498.837-17.174-6.041-39.733-25.745-25.716-22.491-48.646-48.329-50.595-57.066-1.3-6.041 3.992-14.127 23.023-34.853 15.039-16.357 49.481-46.005 59.043-50.652 4.363-2.231 8.912-1.766 15.039 1.3Z" fill="#fff"/><path d="M112.513 36.119c-9.191 4.554-40.476 31.507-55.701 48.05-16.154 17.473-21.63 25.745-20.517 31.043.557 2.881 5.013 9.294 13.368 19.331 14.854 17.938 48.553 47.958 61.364 54.836 8.634 4.554 11.605 3.996 23.766-4.926 23.023-16.915 56.444-50.467 63.592-63.944 2.321-4.368 2.878-6.227 2.414-8.643-1.578-7.993-30.357-40.43-52.637-59.297-21.445-18.03-27.201-20.726-35.649-16.45Zm12.997 33.273c3.62 9.573 6.591 17.844 6.777 18.495.278.837-1.114 1.208-4.456 1.208h-4.828l.65 17.659.65 17.659h-12.347l.65-17.659.649-17.659h-4.456c-3.063 0-4.27-.371-3.899-1.208 1.207-3.346 9.098-25.187 10.955-30.206 1.114-3.16 2.228-5.762 2.599-5.762.279 0 3.528 7.9 7.056 17.473ZM98.03 98.947c3.157 1.859 5.478 3.718 5.199 4.089-.278.372-1.949 1.023-3.899 1.395-9.19 1.672-16.339 7.714-14.39 12.082 2.6 5.669 17.268 9.387 35.928 9.201 14.668-.186 24.323-2.138 31.471-6.32 3.714-2.138 4.271-2.881 4.271-5.576 0-5.112-6.777-9.295-12.905-7.9-1.763.371-3.342.65-3.434.557-.743-.743-3.807-9.944-3.343-9.944 2.321 0 21.538 5.111 21.538 5.669 0 .465-.65.836-1.578.836-.835 0 .093 1.116 2.321 2.789 6.406 4.554 7.427 9.015 3.435 13.848-6.127 7.249-23.023 11.525-45.489 11.618-18.382 0-30.358-2.324-42.426-8.365-12.997-6.506-10.026-17.287 6.684-24.35 3.806-1.58 7.891-2.975 9.005-2.975 1.114 0 4.549 1.487 7.612 3.346Zm26.551 34.946c.186.65.743 8.736 1.207 17.938.65 12.082.557 16.915-.185 17.38-1.207.836-11.883.929-13.926.185-1.299-.557-1.485-2.509-.928-17.473.278-9.201.65-17.38.928-18.03.186-.744 2.321-1.115 6.406-1.115 4.085 0 6.22.371 6.498 1.115Z" fill="#fff"/></svg>
